icons/quora.svg

<?xml version="1.0" encoding="UTF-8" standalone="no"?>
<svg width="512px" height="142px" viewBox="0 0 512 142" version="1.1" xmlns="http://www.w3.org/2000/svg" xmlns:xlink="http://www.w3.org/1999/xlink" preserveAspectRatio="xMidYMid">
    <g>
        <path d="M72.89856,110.49984 C67.98848,100.83584 62.22848,91.07456 50.99264,91.07456 C48.8448,91.07456 46.69952,91.4304 44.73088,92.32896 L40.91392,84.68992 C45.56544,80.69888 53.0816,77.53472 62.74304,77.53472 C77.7728,77.53472 85.48608,84.7744 91.6096,94.016 C95.2448,86.12608 96.9728,75.47136 96.9728,62.26432 C96.9728,29.28384 86.65856,12.34944 62.5664,12.34944 C38.82496,12.34944 28.56704,29.28384 28.56704,62.26432 C28.56704,95.07072 38.82496,111.83104 62.5664,111.83104 C66.33984,111.83104 69.75744,111.41632 72.89856,110.49984 L72.89856,110.49984 L72.89856,110.49984 Z M78.784,122.0096 C73.57952,123.4048 68.04992,124.17536 62.5664,124.17536 C30.95296,124.17536 0,98.94912 0,62.26432 C0,25.23136 30.95296,0 62.5664,0 C94.70976,0 125.36576,25.0496 125.36576,62.26432 C125.36576,82.96448 115.70688,99.78624 101.66784,110.65856 C106.20416,117.45536 110.8736,121.96864 117.376,121.96864 C124.47232,121.96864 127.3344,116.48512 127.81312,112.18432 L137.05472,112.18432 C137.59488,117.91104 134.73024,141.71136 108.9024,141.71136 C93.25824,141.71136 84.98688,132.64384 78.784,122.0096 Z M145.6896,90.53952 L145.6896,48.13056 C145.6896,43.29984 143.90528,41.15456 138.35776,41.15456 L132.45184,41.15456 L132.45184,29.88544 L171.03872,29.88544 L171.03872,90.00448 C171.03872,100.13952 176.5248,104.60928 184.87808,104.60928 C191.73376,104.60928 198.592,101.57568 202.2912,94.65088 L202.2912,48.13056 C202.2912,43.29984 200.50176,41.15456 194.9568,41.15456 L188.69504,41.15456 L188.69504,29.88544 L227.64288,29.88544 L227.64288,92.85888 C227.64288,99.13088 229.96736,101.9904 237.12256,101.9904 L238.37696,101.9904 L238.37696,113.62048 L203.5456,119.16544 L203.5456,107.17952 L202.8288,107.17952 C196.09088,115.4048 186.60864,120.95488 173.0688,120.95488 C157.85984,120.95488 145.6896,113.26464 145.6896,90.53952 Z M289.0368,109.68576 C302.75584,109.68576 307.968,97.75104 308.24192,73.72032 C308.50816,50.2144 302.75584,38.8352 289.0368,38.8352 C277.05088,38.8352 269.53472,50.21952 269.53472,73.72032 C269.53472,97.75616 276.928,109.68576 289.0368,109.68576 Z M289.0368,120.95488 C264.22784,120.95488 241.856,101.98528 241.856,73.72032 C241.856,45.98528 263.68768,27.55584 289.0368,27.55584 C315.45856,27.55584 336.63232,46.33856 336.63232,73.72032 C336.63232,101.98528 315.45856,120.95488 289.0368,120.95488 Z M337.43104,119.16544 L337.43104,107.89376 L341.18912,107.89376 C350.49472,107.89376 351.38816,105.21088 351.38816,97.15968 L351.38816,48.13056 C351.38816,43.29984 348.88448,41.15456 343.16032,41.15456 L338.1504,41.15456 L338.1504,29.88544 L373.51424,29.88544 L375.30368,48.31488 L376.02304,48.31488 C379.96032,35.06944 390.5152,28.09088 400.41216,28.09088 C408.58368,28.09088 414.9632,32.74496 414.9632,42.17088 C414.9632,48.7296 411.80928,55.71072 402.97984,55.71072 C395.04384,55.71072 393.4976,50.33984 386.93376,50.33984 C381.09184,50.33984 376.55552,55.88992 376.55552,64.05632 L376.55552,97.15968 C376.55552,105.21088 378.52672,107.89376 387.65312,107.89376 L392.83968,107.89376 L392.83968,119.16544 L337.43104,119.16544 Z M455.16032,106.04544 C466.43456,106.04544 471.08352,95.37024 471.08352,84.64128 L471.08352,70.32064 C462.85568,78.84544 443.70688,79.14496 443.70688,94.35392 C443.70688,101.80864 448.12544,106.04544 455.16032,106.04544 Z M471.62368,105.984 C466.9696,114.92864 457.42336,120.95488 444.06784,120.95488 C428.56192,120.95488 418.54208,112.71936 418.54208,98.22976 C418.54208,69.07136 459.15648,76.82048 471.08352,57.50016 L471.08352,55.40864 C471.08352,40.56064 465.23904,38.23616 458.79808,38.23616 C440.72704,38.23616 448.95488,57.66912 432.31488,57.66912 C424.32512,57.66912 421.2224,52.84608 421.2224,47.41888 C421.2224,36.44416 434.34496,27.55584 458.97984,27.55584 C482.29376,27.55584 496.61184,33.99936 496.61184,57.20064 L496.61184,94.23616 C496.61184,99.96032 498.7008,103.0656 503.71072,103.0656 C505.856,103.0656 507.64544,102.46912 509.01504,101.51424 L512,108.78464 C509.55264,112.54528 503.05024,119.16544 490.70336,119.16544 C479.97184,119.16544 473.23136,114.15552 472.33536,105.984 L471.62368,105.984 L471.62368,105.984 Z" fill="#B92B27"></path>
    </g>
</svg>

<svg xmlns="http://www.w3.org/2000/svg" viewBox="0 0 512 141.711">
  <path fill="#b92b27" d="M72.899 110.5c-4.91-9.664-10.67-19.425-21.906-19.425-2.148 0-4.293.355-6.262 1.254l-3.817-7.64c4.651-3.99 12.168-7.154 21.829-7.154 15.03 0 22.743 7.24 28.867 16.481 3.635-7.89 5.363-18.545 5.363-31.752 0-32.98-10.314-49.915-34.407-49.915-23.741 0-33.999 16.935-33.999 49.915 0 32.807 10.258 49.567 34 49.567 3.773 0 7.19-.415 10.332-1.331zm5.885 11.51c-5.204 1.395-10.734 2.165-16.218 2.165C30.953 124.175 0 98.95 0 62.265 0 25.23 30.953 0 62.566 0c32.144 0 62.8 25.05 62.8 62.264 0 20.7-9.66 37.522-23.698 48.395 4.536 6.796 9.206 11.31 15.708 11.31 7.096 0 9.958-5.484 10.437-9.785h9.242c.54 5.727-2.325 29.527-28.153 29.527-15.644 0-23.915-9.067-30.118-19.701zm66.906-31.47V48.13c0-4.83-1.785-6.975-7.332-6.975h-5.906v-11.27h38.587v60.12c0 10.135 5.486 14.604 13.84 14.604 6.855 0 13.713-3.033 17.412-9.958V48.13c0-4.831-1.79-6.976-7.334-6.976h-6.262v-11.27h38.948V92.86c0 6.272 2.324 9.131 9.48 9.131h1.254v11.63l-34.831 5.545V107.18h-.717c-6.738 8.225-16.22 13.775-29.76 13.775-15.21 0-27.38-7.69-27.38-30.415zm143.347 19.146c13.719 0 18.931-11.935 19.205-35.966.266-23.506-5.486-34.885-19.205-34.885-11.986 0-19.502 11.385-19.502 34.885 0 24.036 7.393 35.966 19.502 35.966zm0 11.269c-24.81 0-47.181-18.97-47.181-47.235 0-27.735 21.832-46.164 47.18-46.164 26.423 0 47.596 18.783 47.596 46.164 0 28.265-21.173 47.235-47.595 47.235zm48.394-1.79v-11.271h3.758c9.306 0 10.2-2.683 10.2-10.734V48.13c0-4.83-2.505-6.975-8.229-6.975h-5.01v-11.27h35.364l1.79 18.43h.719c3.937-13.246 14.492-20.224 24.39-20.224 8.17 0 14.55 4.654 14.55 14.08 0 6.559-3.154 13.54-11.983 13.54-7.936 0-9.482-5.371-16.046-5.371-5.842 0-10.378 5.55-10.378 13.716V97.16c0 8.05 1.97 10.734 11.097 10.734h5.187v11.271zm117.73-13.12c11.274 0 15.923-10.675 15.923-21.404v-14.32c-8.228 8.524-27.377 8.824-27.377 24.033 0 7.455 4.418 11.691 11.453 11.691zm16.463-.061c-4.654 8.945-14.2 14.97-27.556 14.97-15.506 0-25.526-8.235-25.526-22.724 0-29.159 40.614-21.41 52.542-40.73V55.41c0-14.848-5.845-17.173-12.286-17.173-18.071 0-9.843 19.433-26.483 19.433-7.99 0-11.093-4.823-11.093-10.25 0-10.975 13.123-19.863 37.758-19.863 23.314 0 37.632 6.443 37.632 29.645v37.035c0 5.724 2.089 8.83 7.099 8.83 2.145 0 3.934-.597 5.304-1.552l2.985 7.27c-2.447 3.761-8.95 10.381-21.297 10.381-10.731 0-17.472-5.01-18.368-13.181h-.711z"/>
</svg>
